!!!SOCIAL_FUNCTION:	love songs
!!!PDT:	1909
!!!OTL: No_136_Why_Should_I_Be_Jealous?.krn
!!!REG: Great_Lakes
!!!LANG: Non-Tone
!!!LING_GROUP: Algonquin
**kern
*staff1
=1-
*clefG2
*k[f#c#g#]
*M2/4
4.a/
8b\
=2
2cc#\
=3
4b\
4a/
=4
2b\
=5
4.cc#\
8b\
=6
2a/
=7
4f#/
4e/
=8
2f#/
=9
4.a/
8f#/
=10
2e/
=11
4c#/
4c#/
=12
2c#/
=13
(4.e/
8c#/)
=14
2c#/
=15
4c#/
4c#/
=16
2c#/
==
*-
